!!!OTL: ES FREIT DER WILDE WASSERMANN
!!!ARE: Europa, Mitteleuropa, Deutschland, Pommern, Tantow, Rossow
!!!SCT: E0001H
!!!YEM: Copyright 1995, estate of Helmut Schaffrath.
**kern
*ICvox
*Ivox
*M4/4
*k[f#c#g#]
*A:
{4e
=1
4a
4a
8b
8a
4b
=2
4.cc#
8b
4a
4r}
=3
{4.cc#
8dd
4ee
4ff#
=4
8ee
8cc#
8ee
8dd
4cc#}
{4cc#
=5
4ee
4b
8dd
8cc#
8b
8a
=6
8b
8a
8g#
8f#
4e}
{8f#
8g#
=7
4.a
8e
4c#
4e
=8
2a
4r}
{4cc#
=9
4ee
4b
8dd
8cc#
8b
8a
=10
8b
8a
8g#
8f#
4e}
{8f#
8g#
=11
4.a
8e
4c#
4e
=12
2a
4r}
==
!!!AGN: Sage, Maerchen -, Zauber - Lied, Ballade ?
!!!ONB: ESAC (Essen Associative Code) Database: ERK1
!!!AMT: simple quadruple
!!!AIN: vox
!!!EED: Helmut Schaffrath
!!!EEV: 1.0
*-
